static/img/hami-graph-color.svg

<?xml version="1.0" encoding="utf-8"?>
<!-- Generator: Adobe Illustrator 26.4.1, SVG Export Plug-In . SVG Version: 6.00 Build 0)  -->
<svg version="1.1" id="图层_1" xmlns="http://www.w3.org/2000/svg" xmlns:xlink="http://www.w3.org/1999/xlink" x="0px" y="0px"
	 viewBox="0 0 512 512" style="enable-background:new 0 0 512 512;" xml:space="preserve">
<style type="text/css">
	.st0{fill:#0FD05D;}
</style>
<path id="hami-graph-color_00000059302023475045875950000010036807907968898984_" class="st0" d="M319.9,0
	c19.3,22.9,42.5,41.6,68.9,55.6C416,70,445.3,78.6,476,81.4l-1.8,19.7c-33.3-3-65.2-12.4-94.7-28c-4.2-2.2-8.2-4.5-12.3-6.9
	c-8.2,8.5-15.5,17.7-22.1,27.5c38.1,18.8,69.8,48.8,91.4,86.9c28.7,50.7,36.1,110,20.9,166.8c-15.2,56.8-51.2,104.5-101.3,134.2
	c-33.8,20.1-71.4,30.3-109.4,30.3c-18.4,0-36.9-2.4-55.1-7.3c-55.8-14.9-102.4-51.1-131.1-101.9c-28.6-50.7-36.1-110-20.9-166.8
	c15.2-56.9,51.2-104.5,101.3-134.3c50.2-29.8,108.6-37.9,164.5-23c7.2,1.9,14.3,4.2,21.3,6.9c7-10.8,14.9-21,23.7-30.5
	c-16.9-12.1-32.2-26.3-45.8-42.4L319.9,0z M250.5,91.3c-34.5,0-68.6,9.3-99.3,27.5c-45.7,27-78.4,70.5-92.3,122.3s-7.1,105.8,19,152
	c26,46.1,68.3,78.9,118.9,92.4c16.5,4.4,33.2,6.6,49.9,6.6c34.5,0,68.6-9.3,99.3-27.5c45.7-27,78.4-70.5,92.3-122.3
	s7.1-105.8-19-152c-26-46.1-68.3-78.9-118.9-92.4C283.9,93.5,267.2,91.3,250.5,91.3z M237.8,108c77.7,71.8,128,167.7,142.7,273.6
	l0,0c1.5,10.8,2.7,23.1,3.4,35.5c-5.9,6.8-12.2,13.1-19,19c-0.5-17.8-1.9-36.3-4.1-51.8c-13.5-96.7-57.9-184.7-126.6-252.3
	c40.3,60.1,65.8,128.8,74.4,201.8c5.5,46.2,4,92.3-4.4,137.4c-12.1,4.2-24.7,7.2-37.5,8.8c0.1-4.4,0.2-8.8,0.2-13.2
	c0-6.2-0.1-12.4-0.4-18.5c-7.2,0.7-14.4,1.1-21.6,1.1c-8.1,0-16.2-0.5-24.3-1.4c0.7-6.6,1.2-13.2,1.6-19.8c14.3,1.7,28.7,1.8,43,0.3
	c-4.3-49.8-16.9-98-37.7-143.7c-21.2-46.6-49.9-88.5-85.6-124.9c44.2,72,67.5,154.3,67.5,239.7c0,25.8-2.2,51.5-6.4,76.7
	c-1.4-0.3-2.8-0.7-4.2-1.1c-5.1-1.4-10.1-2.9-14.9-4.7c1.6-9.6,2.8-19.4,3.7-29.1c-13.2-3.7-25.9-8.6-38-14.7
	c0.4-7.4,0.7-14.7,0.8-22.1c12.2,6.9,25.1,12.4,38.7,16.5c0.3-7.2,0.5-14.4,0.5-21.6c0-85.1-24.1-166.9-69.9-237.8
	c8.8-8.8,18.4-16.6,28.7-23.4c40.8,39.8,73.4,86.2,97.1,138.2c25.9,56.8,39.7,117.3,41,180c6.3-39.6,7.1-80,2.3-120.4
	c-9.6-81.3-41.1-157.2-91.5-220.8C210.6,111.4,224.1,108.9,237.8,108z M92.2,201.5c13,27.8,23.3,56.9,30.6,86.7v0
	c8.8,36,13.2,73.2,13.2,110.6c0,13.8-0.6,27.6-1.8,41.3c-6.5-5.4-12.6-11.2-18.3-17.5c0.4-7.9,0.6-15.9,0.6-23.8
	c0-59.9-12.2-119.5-35.4-174.1C84.4,216.6,88.1,208.8,92.2,201.5z M382,190.5c17.8,27.1,29.6,58.6,34,90.9l-19.5,2.6
	c-4-29.4-14.7-58-30.9-82.7L382,190.5z M340.6,144c9.3,7.8,18.1,16.5,26,25.9l-15,12.7l0,0c-7.2-8.5-15.1-16.4-23.6-23.5L340.6,144z
	"/>
</svg>

<svg width="512" height="512" viewBox="0 0 512 512" fill="none" xmlns="http://www.w3.org/2000/svg">
<path d="M319.9 0C339.2 22.9 362.4 41.6 388.8 55.6C416 70 445.3 78.6 476 81.4L474.2 101.1C440.9 98.1 409 88.7 379.5 73.1C375.3 70.9 371.3 68.6 367.2 66.2C359 74.7 351.7 83.9 345.1 93.7C383.2 112.5 414.9 142.5 436.5 180.6C465.2 231.3 472.6 290.6 457.4 347.4C442.2 404.2 406.2 451.9 356.1 481.6C322.3 501.7 284.7 511.9 246.7 511.9C228.3 511.9 209.8 509.5 191.6 504.6C135.8 489.7 89.1999 453.5 60.4999 402.7C31.8999 352 24.3999 292.7 39.5999 235.9C54.7999 179 90.7999 131.4 140.9 101.6C191.1 71.8 249.5 63.7 305.4 78.6C312.6 80.5 319.7 82.8 326.7 85.5C333.7 74.7 341.6 64.5 350.4 55C333.5 42.9 318.2 28.7 304.6 12.6L319.9 0ZM250.5 91.3C216 91.3 181.9 100.6 151.2 118.8C105.5 145.8 72.7999 189.3 58.8999 241.1C44.9999 292.9 51.7999 346.9 77.8999 393.1C103.9 439.2 146.2 472 196.8 485.5C213.3 489.9 230 492.1 246.7 492.1C281.2 492.1 315.3 482.8 346 464.6C391.7 437.6 424.4 394.1 438.3 342.3C452.2 290.5 445.4 236.5 419.3 190.3C393.3 144.2 351 111.4 300.4 97.9C283.9 93.5 267.2 91.3 250.5 91.3ZM237.8 108C315.5 179.8 365.8 275.7 380.5 381.6C382 392.4 383.2 404.7 383.9 417.1C378 423.9 371.7 430.2 364.9 436.1C364.4 418.3 363 399.8 360.8 384.3C347.3 287.6 302.9 199.6 234.2 132C274.5 192.1 300 260.8 308.6 333.8C314.1 380 312.6 426.1 304.2 471.2C292.1 475.4 279.5 478.4 266.7 480C266.8 475.6 266.9 471.2 266.9 466.8C266.9 460.6 266.8 454.4 266.5 448.3C259.3 449 252.1 449.4 244.9 449.4C236.8 449.4 228.7 448.9 220.6 448C221.3 441.4 221.8 434.8 222.2 428.2C236.5 429.9 250.9 430 265.2 428.5C260.9 378.7 248.3 330.5 227.5 284.8C206.3 238.2 177.6 196.3 141.9 159.9C186.1 231.9 209.4 314.2 209.4 399.6C209.4 425.4 207.2 451.1 203 476.3C201.6 476 200.2 475.6 198.8 475.2C193.7 473.8 188.7 472.3 183.9 470.5C185.5 460.9 186.7 451.1 187.6 441.4C174.4 437.7 161.7 432.8 149.6 426.7C150 419.3 150.3 412 150.4 404.6C162.6 411.5 175.5 417 189.1 421.1C189.4 413.9 189.6 406.7 189.6 399.5C189.6 314.4 165.5 232.6 119.7 161.7C128.5 152.9 138.1 145.1 148.4 138.3C189.2 178.1 221.8 224.5 245.5 276.5C271.4 333.3 285.2 393.8 286.5 456.5C292.8 416.9 293.6 376.5 288.8 336.1C279.2 254.8 247.7 178.9 197.3 115.3C210.6 111.4 224.1 108.9 237.8 108ZM92.1999 201.5C105.2 229.3 115.5 258.4 122.8 288.2C131.6 324.2 136 361.4 136 398.8C136 412.6 135.4 426.4 134.2 440.1C127.7 434.7 121.6 428.9 115.9 422.6C116.3 414.7 116.5 406.7 116.5 398.8C116.5 338.9 104.3 279.3 81.0999 224.7C84.3999 216.6 88.0999 208.8 92.1999 201.5ZM382 190.5C399.8 217.6 411.6 249.1 416 281.4L396.5 284C392.5 254.6 381.8 226 365.6 201.3L382 190.5ZM340.6 144C349.9 151.8 358.7 160.5 366.6 169.9L351.6 182.6C344.4 174.1 336.5 166.2 328 159.1L340.6 144Z" fill="#0FD05D"/>
</svg>
